X: 5
T: The Flooded Road To Glenties
R: reel
M: 4/4
L: 1/8
K: Bdor
|:A|FB B2 cfec|cfec BAFE|FB B2 caaf|gfeg f3e|
fafe cfec|B3A defg|af f2 fecB|cfec B3:|
|:c|dB B2 aBgB|fB B2 cBAc|dB B2 abaf|gfeg f3e|
fafe cfec|B3A defg|af f2 fecB|cfec B3:|


Tune 3440	Setting 26598

